icons/referral_fill.svg

<svg width="48" height="48" viewBox="0 0 48 48" fill="none" xmlns="http://www.w3.org/2000/svg">
<path fill-rule="evenodd" clip-rule="evenodd" d="M13 6C11.8954 6 11 6.89543 11 8V9H6V28H28V9H23V8C23 6.89543 22.1046 6 21 6H13ZM21 18C22.1046 18 23 17.1046 23 16V15H26V26H21V20H13V26H8V15H11V16C11 17.1046 11.8954 18 13 18H21ZM8 11H11V13H8V11ZM26 13H23V11H26V13ZM19 22V26H15V22H19ZM16 8V11H13V13H16V16H18V13H21V11H18V8H16Z" fill="black"/>
<path d="M30 27C30 24.7902 31.7902 23 34 23C36.2098 23 38 24.7902 38 27C38 29.2098 36.2098 31 34 31C31.7902 31 30 29.2098 30 27Z" fill="black"/>
<path d="M34 33C31.33 33 26 34.4618 26 37.3636V40H17C16.2714 40 15.7984 39.7367 15.4974 39.3981C15.1801 39.0412 15 38.5369 15 38V34.4142L18.2929 37.7071L19.7071 36.2929L14 30.5858L8.29289 36.2929L9.70711 37.7071L13 34.4142V38C13 38.9631 13.3199 39.9588 14.0026 40.7269C14.7016 41.5133 15.7286 42 17 42H42V37.3636C42 34.4618 36.67 33 34 33Z" fill="black"/>
</svg>

<svg
  xmlns="http://www.w3.org/2000/svg"
  width="24"
  height="24"
  viewBox="0 0 24 24"
  fill="none"
  stroke="currentColor"
  stroke-width="2"
  stroke-linecap="round"
  stroke-linejoin="round"
>
  <path
    fill-rule="evenodd"
    d="M13 6a2 2 0 0 0-2 2v1H6v19h22V9h-5V8a2 2 0 0 0-2-2zm8 12a2 2 0 0 0 2-2v-1h3v11h-5v-6h-8v6H8V15h3v1a2 2 0 0 0 2 2zM8 11h3v2H8zm18 2h-3v-2h3zm-7 9v4h-4v-4zM16 8v3h-3v2h3v3h2v-3h3v-2h-3V8z"
    clip-rule="evenodd"
  />
  <path d="M30 27a4 4 0 0 1 4-4 4 4 0 0 1 4 4 4 4 0 0 1-4 4 4 4 0 0 1-4-4" />
  <path d="M34 33c-2.67 0-8 1.462-8 4.364V40h-9c-.729 0-1.202-.263-1.503-.602C15.18 39.041 15 38.537 15 38v-3.586l3.293 3.293 1.414-1.414L14 30.586l-5.707 5.707 1.414 1.414L13 34.414V38c0 .963.32 1.959 1.003 2.727C14.702 41.513 15.729 42 17 42h25v-4.636C42 34.462 36.67 33 34 33" />
</svg>
